lams_tool_eadventure/web/images/icon_eAdventure game.svg

<?xml version="1.0" encoding="UTF-8" standalone="no"?>
<!-- Created with Inkscape (http://www.inkscape.org/) -->

<svg
   xmlns:dc="http://purl.org/dc/elements/1.1/"
   xmlns:cc="http://creativecommons.org/ns#"
   xmlns:rdf="http://www.w3.org/1999/02/22-rdf-syntax-ns#"
   xmlns:svg="http://www.w3.org/2000/svg"
   xmlns="http://www.w3.org/2000/svg"
   xmlns:sodipodi="http://sodipodi.sourceforge.net/DTD/sodipodi-0.dtd"
   xmlns:inkscape="http://www.inkscape.org/namespaces/inkscape"
   width="30"
   height="30"
   viewBox="0 0 30 30"
   id="svg4188"
   version="1.1"
   inkscape:version="0.91 r13725"
   sodipodi:docname="e-adventure_small_ok.svg">
  <defs
     id="defs4190">
    <linearGradient
       id="id2"
       gradientUnits="userSpaceOnUse"
       x1="147.25999"
       y1="632.04999"
       x2="455.42001"
       y2="606.57001">
      <stop
         offset="0"
         style="stop-opacity:1; stop-color:#FEFEFE"
         id="stop19" />
      <stop
         offset="0.988235"
         style="stop-opacity:0.827451; stop-color:white"
         id="stop21" />
      <stop
         offset="1"
         style="stop-opacity:1; stop-color:white"
         id="stop23" />
    </linearGradient>
    <linearGradient
       id="id0"
       gradientUnits="userSpaceOnUse"
       x1="825.65997"
       y1="1231.59"
       x2="848.34998"
       y2="843.76001">
      <stop
         offset="0"
         style="stop-opacity:1; stop-color:#FEFEFE"
         id="stop9" />
      <stop
         offset="1"
         style="stop-opacity:1; stop-color:white"
         id="stop11" />
    </linearGradient>
    <linearGradient
       gradientTransform="matrix(0.01661695,0,0,0.01661695,1.4982761,1020.7056)"
       id="id1"
       gradientUnits="userSpaceOnUse"
       x1="1068.1801"
       y1="1404.83"
       x2="637.56"
       y2="649.21002">
      <stop
         offset="0"
         style="stop-opacity:1; stop-color:#F19009"
         id="stop14" />
      <stop
         offset="1"
         style="stop-opacity:1; stop-color:#FEE60F"
         id="stop16" />
    </linearGradient>
  </defs>
  <sodipodi:namedview
     id="base"
     pagecolor="#ffffff"
     bordercolor="#666666"
     borderopacity="1.0"
     inkscape:pageopacity="0.0"
     inkscape:pageshadow="2"
     inkscape:zoom="3.959798"
     inkscape:cx="116.7248"
     inkscape:cy="-36.661449"
     inkscape:document-units="px"
     inkscape:current-layer="layer1"
     showgrid="false"
     units="px"
     inkscape:window-width="1920"
     inkscape:window-height="1138"
     inkscape:window-x="-8"
     inkscape:window-y="-8"
     inkscape:window-maximized="1" />
  <metadata
     id="metadata4193">
    <rdf:RDF>
      <cc:Work
         rdf:about="">
        <dc:format>image/svg+xml</dc:format>
        <dc:type
           rdf:resource="http://purl.org/dc/dcmitype/StillImage" />
        <dc:title></dc:title>
      </cc:Work>
    </rdf:RDF>
  </metadata>
  <g
     inkscape:label="Layer 1"
     inkscape:groupmode="layer"
     id="layer1"
     transform="translate(0,-1022.3622)">
    <path
       class="fil0"
       d="m 11.534912,1033.1185 c 0.997015,-0.7146 1.844481,-1.9608 3.489558,-1.5288 0.08308,0.016 0.631446,-0.2991 1.262891,-0.216 0.897312,0.1 1.395824,0.1329 1.379205,0.2658"
       id="path27"
       inkscape:connector-curvature="0"
       style="clip-rule:evenodd;fill:none;fill-rule:evenodd;image-rendering:optimizeQuality;shape-rendering:geometricPrecision;text-rendering:geometricPrecision" />
    <path
       class="fil1"
       d="m 9.8898361,1045.5146 0.1329339,7.0955 -6.663397,-0.016 -0.066467,-9.1227 0,-10.8508 c 0.282487,-2.7918 1.3625888,-5.0018 3.2735369,-6.68 2.2599065,-1.9775 5.4503611,-2.9745 9.5713631,-3.0077 3.98807,-0.016 6.929268,0.864 8.840217,2.6254 1.927567,1.778 2.891351,4.5198 2.924582,8.2586 l 0.149554,18.7106 -6.21474,0.034 -0.415421,-7.245 c 0,-0.1329 -7.660417,-0.3323 -11.5321622,0.1994 z"
       id="path29"
       inkscape:connector-curvature="0"
       style="clip-rule:evenodd;fill:url(#id1);fill-rule:evenodd;image-rendering:optimizeQuality;shape-rendering:geometricPrecision;text-rendering:geometricPrecision" />
    <g
       transform="matrix(0.01661695,0,0,0.01661695,1.4982761,1020.7056)"
       style="clip-rule:evenodd;fill-rule:evenodd;image-rendering:optimizeQuality;shape-rendering:geometricPrecision;text-rendering:geometricPrecision"
       id="_1060285920">
      <path
         class="fil0"
         d="m 828,933 c 60,-42 111,-118 210,-92 5,1 38,-17 76,-13 54,6 84,8 84,16"
         id="path32"
         inkscape:connector-curvature="0"
         style="fill:none" />
      <path
         class="fil2 str0"
         d="m 1202,1530 c -79,77 -115,98 -252,118 C 778,1673 633,1613 516,1525 399,1437 326,1300 297,1115 267,923 295,766 381,646 466,524 590,452 753,428 c 158,-23 294,10 410,100 116,89 189,228 218,417 2,11 5,29 7,52 l -880,128 c 28,124 79,215 155,272 76,57 164,78 262,64 73,-11 228,-51 274,-96 M 495,965 1153,869 C 1129,773 1093,705 1044,663 969,598 880,572 779,587 687,600 615,641 562,710 509,779 486,864 495,965 Z"
         id="path34"
         inkscape:connector-curvature="0"
         style="fill:url(#id0);stroke:#f19309;stroke-width:35.27000046" />
    </g>
    <path
       class="fil0"
       d="m 14.127156,1028.9476 c 1.013636,-0.7145 1.861098,-1.9608 3.506178,-1.5454 0.08308,0.034 0.631441,-0.2825 1.262887,-0.1994 0.897317,0.1 1.395825,0.1329 1.379209,0.2659"
       id="path36"
       inkscape:connector-curvature="0"
       style="clip-rule:evenodd;fill:none;fill-rule:evenodd;image-rendering:optimizeQuality;shape-rendering:geometricPrecision;text-rendering:geometricPrecision" />
    <g
       transform="matrix(0.01661695,0,0,0.01661695,1.4982761,1020.7056)"
       style="clip-rule:evenodd;fill-rule:evenodd;image-rendering:optimizeQuality;shape-rendering:geometricPrecision;text-rendering:geometricPrecision"
       id="_1060285088">
      <path
         class="fil3"
         d="M 434,351 C 279,437 133,899 184,887 136,902 193,461 434,351 Z"
         id="path39"
         inkscape:connector-curvature="0"
         style="fill:url(#id2)" />
    </g>
    <path
       class="fil0"
       d="m 8.7100316,1026.5381 c -2.8913521,0.997 -5.101403,9.2224 -4.1542388,8.9067"
       id="path41"
       inkscape:connector-curvature="0"
       style="clip-rule:evenodd;fill:none;fill-rule:evenodd;image-rendering:optimizeQuality;shape-rendering:geometricPrecision;text-rendering:geometricPrecision" />
    <rect
       class="fil5"
       x="20.989956"
       y="1043.72"
       width="1.5608301"
       height="8.8425436"
       id="rect56"
       style="clip-rule:evenodd;fill:#f19009;fill-rule:evenodd;image-rendering:optimizeQuality;shape-rendering:geometricPrecision;text-rendering:geometricPrecision" />
  </g>
</svg>

<?xml version="1.0" encoding="UTF-8"?>
<!DOCTYPE svg PUBLIC "-//W3C//DTD SVG 1.1//EN" "http://www.w3.org/Graphics/SVG/1.1/DTD/svg11.dtd">
<!-- Creator: CorelDRAW X7 -->
<svg xmlns="http://www.w3.org/2000/svg" xml:space="preserve" width="30px" height="30px" version="1.1" style="shape-rendering:geometricPrecision; text-rendering:geometricPrecision; image-rendering:optimizeQuality; fill-rule:evenodd; clip-rule:evenodd"
viewBox="0 0 1700 2000"
 xmlns:xlink="http://www.w3.org/1999/xlink"
 >
 <defs>
  <style type="text/css">
   <![CDATA[
    .str0 {stroke:#F19309;stroke-width:35.27}
    .fil0 {fill:none}
    .fil4 {fill:#FEFEFE}
    .fil5 {fill:#F19009}
    .fil2 {fill:url(#id0)}
    .fil1 {fill:url(#id1)}
    .fil3 {fill:url(#id2)}
   ]]>
  </style>
  <linearGradient id="id0" gradientUnits="userSpaceOnUse" x1="825.66" y1="1231.59" x2="848.35" y2="843.76">
   <stop offset="0" style="stop-opacity:1; stop-color:#FEFEFE"/>
   <stop offset="1" style="stop-opacity:1; stop-color:white"/>
  </linearGradient>
  <linearGradient id="id1" gradientUnits="userSpaceOnUse" x1="1068.18" y1="1404.83" x2="637.56" y2="649.21">
   <stop offset="0" style="stop-opacity:1; stop-color:#F19009"/>
   <stop offset="1" style="stop-opacity:1; stop-color:#FEE60F"/>
  </linearGradient>
  <linearGradient id="id2" gradientUnits="userSpaceOnUse" x1="147.26" y1="632.05" x2="455.42" y2="606.57">
   <stop offset="0" style="stop-opacity:1; stop-color:#FEFEFE"/>
   <stop offset="0.988235" style="stop-opacity:0.827451; stop-color:white"/>
   <stop offset="1" style="stop-opacity:1; stop-color:white"/>
  </linearGradient>
 </defs>
 <g id="Layer_x0020_1">
  <metadata id="CorelCorpID_0Corel-Layer"/>
  <path class="fil0" d="M604 747c60,-43 111,-118 210,-92 5,1 38,-18 76,-13 54,6 84,8 83,16"/>
  <path class="fil1" d="M505 1493l8 427 -401 -1 -4 -549 0 -653c17,-168 82,-301 197,-402 136,-119 328,-179 576,-181 240,-1 417,52 532,158 116,107 174,272 176,497l9 1126 -374 2 -25 -436c0,-8 -461,-20 -694,12z"/>
  <g id="_1060285920">
   <path class="fil0" d="M828 933c60,-42 111,-118 210,-92 5,1 38,-17 76,-13 54,6 84,8 84,16"/>
   <path class="fil2 str0" d="M1202 1530c-79,77 -115,98 -252,118 -172,25 -317,-35 -434,-123 -117,-88 -190,-225 -219,-410 -30,-192 -2,-349 84,-469 85,-122 209,-194 372,-218 158,-23 294,10 410,100 116,89 189,228 218,417 2,11 5,29 7,52l-880 128c28,124 79,215 155,272 76,57 164,78 262,64 73,-11 228,-51 274,-96m-704 -400l658 -96c-24,-96 -60,-164 -109,-206 -75,-65 -164,-91 -265,-76 -92,13 -164,54 -217,123 -53,69 -76,154 -67,255z"/>
  </g>
  <path class="fil0" d="M760 496c61,-43 112,-118 211,-93 5,2 38,-17 76,-12 54,6 84,8 83,16"/>
  <g id="_1060285088">
   <path class="fil3" d="M434 351c-155,86 -301,548 -250,536 -48,15 9,-426 250,-536z"/>
  </g>
  <path class="fil0" d="M434 351c-174,60 -307,555 -250,536"/>
  <g id="_1060282784">
   <g>
    <path class="fil4" d="M1874 1171c69,-45 130,-60 208,-42 0,0 16,4 12,7 -2,-1 -2,-1 -4,-1 -81,-10 -139,7 -205,55 -5,3 -12,2 -15,-3 -3,-6 -1,-12 4,-16z"/>
   </g>
   <path class="fil0" d="M1880 1181c34,-22 64,-60 121,-47 3,1 22,-8 44,-6 32,3 49,4 49,8"/>
   <g>
    <path class="fil4" d="M5363 992c-32,56 -71,89 -132,103 0,0 -13,3 -11,-1 1,0 1,0 3,0 61,-22 96,-54 126,-112 3,-4 8,-5 12,-3 4,3 5,8 2,13z"/>
   </g>
   <path class="fil0" d="M5356 987c-17,27 -25,65 -70,76 -2,0 -13,14 -29,20 -23,9 -36,14 -37,11"/>
  </g>
  <rect class="fil5" x="1173" y="1385" width="93.93" height="532.14"/>
 </g>
</svg>
